X:154
T:Elfin Waltzes #2. Le4.154
Q:3/4=50
L:1/4
B:L.Leadley MS#4 c1850
Z:vmp.Mike Hicken 2016 www.village-music-project.org.uk
N: There is no #1 in the book.
N: * These notes could be stacato in the original but it is not clear.
M:3/4
K:A
!p!(ag)z/g/|(gf)z/f/|!>(!(f2!>)!e)|czz|(^de)z/e/|(eG)z/G/|!>(!(B2!>)!A)| Ezz|
(ag) z/"*"g/|(gf)z/"*"f/|(f2e)|czz|!f!Tf2 e'/z/|(Tf2d'/)z/|(d'/b/g/e/d/B/)|Azz :|
|:!p!(.c'/.c'/.c'/.c'/.c'/.c'/)|(.c'/ z/.b/ z/.a/) z/|(.g/z/ .f/z/ .e/)z/|!>(!(e2!>)!d)|d'3|(.b/z/ .a/z/ .g/)z/|(.f/z/ .e/z/ .d/)z/|!>(!(d2!>)!c)|
!f! !>(!c'3!>)!|!p!(.a/z/ .f/z/ .f/)z/|!f! !>(!d'3!>)!|!p!(.b/z/ .g/z/ .g/)z/|!f!!>(!g'3!>)!|(.e'/z/ .d'/z/ .c'/)z/|(.b/z/ .a/z/ .g/)z/|azz :|

